X:186
T:John Anderson my Jo TS.186
M:2/4
L:1/8
Q:1/2=50
S:Thomas Sands’ MS,1810,Lincolnshire
R:air
O:England;Lincolnshire
Z:vmp.Ruairidh Greig, 2011
K:Em
D|B,EEF|G2GA|EDD>E|D3E/D/|B,EEF|GFGA|BAGA|B3||
c|BAGA|BcdB|AGFG|A2GA|BGAF|GEFB|B,EE^D|”dot added”E3:|
|:d|Beef|g2ga|fdde|d2ed|Beef|g2fe|fdBB|B3d/c/|
BGdG|gGdG|DEFG|A2GA|BGAF|GEFB|B,EE^D|”rep.added”E3:|]

